X:1
T:Title
%%score { ( 1 3 ) | 2 }
L:1/8
M:4/4
K:D
V:1 treble nm="Grand Piano"
V:3 treble 
V:2 bass 
V:1
 z4 z2[Q:1/4=95] [DF][EG] | [FA]2 F>E FDEF | G2 B>A B[Bd][Ac][GB] | [FA]2 F>E FAGF | [CE]6 z2 | %5
 [FA]2 F>E FDEF | G2 B>A B[Bd][Ac]B | A d3 [DF]2 [CE]2 |[M:3/4] D6 |[M:1/4] BA | %10
[M:4/4] [CG]<[Ec] [Gc]>[GB] [Gc]2 [FA][EG] |[M:3/4] [DF]<[Fd] [Fd]>[Ec] [Fd]2 |[M:1/4] [Ad][Ac] | %13
[M:4/4] B>A Bc edcB |[M:3/4] A<d [DF]>[CE] D2 |[M:1/4] BA | %16
[M:4/4] [CG]<[Ec] [Gc]>[GB] [Gc]2 [FA][EG] |[M:3/4] [DF]<[Fd] [Fd]>[Ec] [Fd]2 |[M:1/4] [Ad][Ac] | %19
[M:4/4] B>A Bc edcB |[M:3/4] A<d [DF]>[CE] D2 |] %21
V:2
 z4 z2 [D,A,][D,A,] | [D,D]2 [D,A,D]>[D,A,C] [D,A,D][D,F,][D,G,C][D,A,D] | %2
 [G,B,D]2 [G,DG]>[G,DF] [G,DG][G,D][K:bass][G,D][G,D] | %3
 [D,D]2 [D,A,D]>[D,A,C] [D,A,D][F,A,D][E,A,C][D,A,D] | [A,,A,]2 C,E, G,2 [F,A,D][E,A,E] | %5
 [D,D]2 [D,A,D]>[D,A,C] [D,A,D][F,A,][E,A,C][D,A,D] | %6
 [G,B,D]2 [G,DG]>[G,DF] [G,DG][G,D][G,D][G,DG] | [A,DF] [A,F]3[K:bass] [A,,A,]2 [A,,G,]2 | %8
[M:3/4] [D,F,]6 |[M:1/4] [D,G,D][D,F,D] | %10
[M:4/4] [A,,E,]<[A,,A,] [A,,A,]>[A,,A,] [A,,A,]2 [A,,A,][A,,A,] | %11
[M:3/4] [D,A,]<[D,A,] [D,A,]>[D,A,] [D,A,]2 |[M:1/4] [F,D][F,D] | %13
[M:4/4][K:treble] [G,DG]>[G,DF] [G,DG][G,CG] [G,B,G][G,B,G][G,CG][G,DG] | %14
[M:3/4] [A,DF]<[A,F][K:bass] [A,,A,]>[A,,G,] [D,F,]2 |[M:1/4] [D,G,D][D,F,D] | %16
[M:4/4] [A,,E,]<[A,,A,] [A,,A,]>[A,,A,] [A,,A,]2 [A,,A,][A,,A,] | %17
[M:3/4] [D,A,]<[D,A,] [D,A,]>[D,A,] [D,A,]2 |[M:1/4] [F,D][F,D] | %19
[M:4/4][K:treble] [G,DG]>[G,DF] [G,DG][G,CG] [G,B,G][G,B,G][G,CG][G,DG] | %20
[M:3/4] [A,DF]<[A,F][K:bass] [A,,A,]>[A,,G,] [D,F,]2 |] %21
V:3
 x8 | x8 | x8 | x8 | z2 A,A, A,2 FG | x8 | x8 | x8 |[M:3/4] x6 |[M:1/4] x2 |[M:4/4] x8 | %11
[M:3/4] x6 |[M:1/4] x2 |[M:4/4] x8 |[M:3/4] x6 |[M:1/4] x2 |[M:4/4] x8 |[M:3/4] x6 |[M:1/4] x2 | %19
[M:4/4] x8 |[M:3/4] x6 |] %21

